!!!COM:	la Rue, Pierre de
!!!CDT:	~1452///-1518/11/20
!!!OTL:	Autant en emporte le vent
!!!AGN:	Song; Chanson
!!!SCT:	Rue3001
!!!SCA:	Rue3001
!!!voices:	4
**kern	**kern	**kern	**kern
*staff4	*staff3	*staff2	*staff1
*Ivox	*Ivox	*Ivox	*Ivox
*I"Bassus	*I"Tenor	*I"Contra	*I"Discantus
*I'B	*I'T	*I'C	*I'D
*clefF4	*clefGv2	*clefGv2	*clefG2
*k[b-]	*k[b-]	*k[b-]	*k[b-]
*M2/1	*M2/1	*M2/1	*M2/1
*met(C|)	*met(C|)	*met(C|)	*met(C|)
=1-	=1-	=1-	=1-
1G	1r	0r	0r
1G	1G	.	.
=2	=2	=2	=2
2.F\	2.A/	0r	0r
4F\	4A/	.	.
2F\	2A/	.	.
2G\	2B-\	.	.
=3	=3	=3	=3
2G\	2B-\	1d	1g
4F\	4A/	.	.
4E\	4G/	.	.
1D	1F	2.f\	2.a/
.	.	4f\	4a/
=4	=4	=4	=4
0r	0r	2f\	2a/
.	.	2g\	2b-\
.	.	2g\	2b-\
.	.	4f\	4a/
.	.	4e\	4g/
=5	=5	=5	=5
2r	2r	0d	1f
2F\	2F/	.	.
2G\	2B-\	.	1r
2G\	2B-\	.	.
=6	=6	=6	=6
2F\	2A/	0r	0r
2G\	2B-\	.	.
2E\	2c\	.	.
2E\	2c\	.	.
=7	=7	=7	=7
1D	1d	2r	2r
.	.	2f\	2f/
1r	1r	2g\	2b-\
.	.	2g\	2b-\
=8	=8	=8	=8
0r	0r	2f\	2a/
.	.	2g\	2b-\
.	.	2e\	2cc\
.	.	2e\	2cc\
=9	=9	=9	=9
1r	0r	0d	1dd
1G	.	.	1b-
=10	=10	=10	=10
2G\	1d	2r	2b-\
2G\	.	2d\	2b-\
1F	2d\	2f\	2a/
.	2d\	2f\	2a/
=11	=11	=11	=11
2G\	2d\	2B-\	2b-\
2G\	2d\	2B-\	2b-\
1E	1c	2G/	4cc\
.	.	.	4b-\
.	.	2G/	4a/
.	.	.	4g/
=12	=12	=12	=12
1D	1d	1A	1f
1r	1B-	1G	2r
.	.	.	2g/
=13	=13	=13	=13
2r	1A	2r	2a/
2F\	.	2d\	2a/
2G\	2r	2d\	2b-\
2G\	2d\	2d\	2b-\
=14	=14	=14	=14
2G\	2d\	2B-\	2.b-\
2G\	2d\	2B-\	.
.	.	.	4g/
2F\	2d\	2A/	2a/
2D\	2d\	2F/	2b-\
=15	=15	=15	=15
1E-i	1c	2.G/	4cc\
.	.	.	4b-\
.	.	.	4a/
.	.	4A/	4g/
1D	1d	4B-\	4f/
.	.	4c\	4e/
.	.	[2d\	[2a/
=16	=16	=16	=16
1E-	2B-\	2d\]	2a/]
.	4A/	2c\	1g
.	4G/	.	.
1D	1A	2.d\	.
.	.	.	2f#i/
.	.	4c\	.
=17	=17	=17	=17
2r	1G	4B-\	2g/
.	.	4A/	.
2GG/	.	1G	2b-\
2AA/	1r	.	2cc\
2AA/	.	2F#i/	4cc\
.	.	.	4cc\
=18	=18	=18	=18
2GG/	2r	1G	2b-\
1G	2B-\	.	2g/
.	1c	1r	2a/
2F\	.	.	2a/
=19	=19	=19	=19
2G\	2B-\	0r	2g/
2E\	2G/	.	1g
1D	1A	.	.
.	.	.	2f#i/
=20	=20	=20	=20
1GG	0G	2r	1g
.	.	2d\	.
1r	.	2.g\	1r
.	.	4g\	.
=21	=21	=21	=21
2r	0r	2f\	0r
2F\	.	2d\	.
1G	.	1e	.
=22	=22	=22	=22
2F\	0r	2d\	0r
2D\	.	1d	.
1E	.	.	.
.	.	2c#i\	.
=23	=23	=23	=23
[0D	0r	0d	2r
.	.	.	2a/
.	.	.	2a/
.	.	.	2a/
=24	=24	=24	=24
0D]	0r	1r	2a/
.	.	.	2a/
.	.	2r	2b-\
.	.	2d\	2a/
=25	=25	=25	=25
0r	0r	2d\	2b-\
.	.	2d\	4a/
.	.	.	4g/
.	.	2d\	1f
.	.	2d\	.
=26	=26	=26	=26
0r	0r	2e-\	2r
.	.	2d\	2f/
.	.	2e-i\	2g/
.	.	4d\	2a/
.	.	4c\	.
=27	=27	=27	=27
0r	1r	1B-	1d
.	2r	1c	2r
.	2A/	.	[2a/
=28	=28	=28	=28
0r	2A/	0F	4a/]
.	.	.	4b-\
.	2A/	.	2.cc\
.	2A/	.	.
.	.	.	4b-\
.	2A/	.	4a/
.	.	.	4g/
=29	=29	=29	=29
2r	2B-\	0r	1f
2D\	2A/	.	.
2D\	2B-\	.	2r
2D\	4A/	.	[2a/
.	4G/	.	.
=30	=30	=30	=30
2D\	1F	0r	2a/]
2D\	.	.	4g/
.	.	.	4f/
2E-\	2r	.	2g/
2D\	2F/	.	2f/
=31	=31	=31	=31
2E-i\	2G/	1r	1cc
4D\	2A/	.	.
4C/	.	.	.
1BB-	2D/	1f	1dd
.	2B-\	.	.
=32	=32	=32	=32
2AA/	2c\	2f\	2cc\
2BB-/	2d\	2f\	1b-
1F	1c	2f\	.
.	.	[2f\	2a/
=33	=33	=33	=33
1BB-	1B-	2f\]	1b-
.	.	2d\	.
2r	1B-	1d	2r
2G\	.	.	2b-\
=34	=34	=34	=34
2G\	2r	2d\	2b-\
2G\	2d\	2.f\	2b-\
2F\	2d\	.	2a/
.	.	4e\	.
2F\	2d\	4d\	2a/
.	.	4c\	.
=35	=35	=35	=35
1G	2d\	4B-\	2b-\
.	.	4A/	.
.	2d\	4G/	2b-\
.	.	4F/	.
1E	1c	1G	4cc\
.	.	.	4b-\
.	.	.	4a/
.	.	.	4g/
=36	=36	=36	=36
1D	1d	1A	1f
1r	1B-	1G	2r
.	.	.	2g/
=37	=37	=37	=37
2r	1A	2r	2a/
2F\	.	2d\	2a/
2G\	2r	2d\	2b-\
2G\	2d\	2d\	2b-\
=38	=38	=38	=38
2G\	2d\	2B-\	2.b-\
2G\	2d\	2B-\	.
.	.	.	4g/
2F\	2d\	2A/	2a/
2D\	2d\	2F/	2b-\
=39	=39	=39	=39
1E-i	1c	2.G/	4cc\
.	.	.	4b-\
.	.	.	4a/
.	.	4A/	4g/
1D	1d	4B-\	4f/
.	.	4c\	4e/
.	.	[2d\	[2a/
=40	=40	=40	=40
1E-i	2B-\	2d\]	4a/]
.	.	.	4g/
.	2G/	2c\	1g
1D	1A	1d	.
.	.	.	2f#i/
=41	=41	=41	=41
0GGl	0Gl	0dl	0gl
==	==	==	==
*-	*-	*-	*-
!!!RDF**kern: l=long note in original notation
!!!RDF**kern: i=editorial accidental
!!!ENC:	Chris Gage 06-11-2013
!!!END:	2013/08/06/
!!!EED:	Jesse Rodin
!!!EEV:	2013/08/06/
!!!ONB:	Translated from MusicXML and edited on 2013/08/06/ by Craig Sapp
!!muse2ps: C^@{COM}^i2I150v85,85,85,150Q16
